X: 3
T: Bonaparte's Retreat
R: reel
M: 4/4
L: 1/8
K: Gmaj
|: G>F|D>GG>F G>BA>G | F>Ad>e f>ef>g | a>gf>a g>fd>e | (3fed c>A B>GA>F|
D>GG>F G>BA>G | F>Ad>e f>ef>g | a>g (3fed c>AF>G | A2 G2 G2 :|
|: d>e|f>ef>g f2 e>f | g>fg>a g2 d>e | f>ef>g a>ba>g | (3fed c>A B>G G2|
f>ef>g f2 e>f | g>fg>a g2 f>g | a>ba>g f>ga>f | b>ga>f g2 f>g |
a>ba>g f>ga>f | b>ga>f g2 f>e| d>Bd>e f>de>d | d>cA>F G>BA>G |
D>GG>F G>BA>G | F>Ad>e f>ef>g | a>gf>a g>fd>e | (3fed c>A B>GA>F |
D>GG>F G>BA>G | F>Ad>e f>ef>g | a>g (3fed c>AF>G | A2 G2 G2 :|


Tune 2372	Setting 15719

